!! 00000] TT[
!! NN
!!!OTL: Zhapu tiange
!!!ARE: Asia, China,ÿZhejiang, Pinghu
!! Ethnic Group: Han
!! III, 642, 2)
!!!SCT: C0811
!!!YEM: Copyright 1995, estate of Helmut Schaffrath.
**kern
*ICvox
*Ivox
*M2/4
*k[]
*C:
{16dd
16dd
8dd
8gg
16gg
16ee
=1
8dd
8ee
8ee
[8cc
=2
2cc]}
=3
{16dd
16dd
8dd
8gg
16gg
16ee
=4
4dd
8dd
8b
=5
8a
4.g}
=6
{8a
8a
8dd
8cc#
=7
8dd
16dd
16cc#
4dd}
=8
{8dd
8dd
8dd
8e
=9
8.g
16a
8b
8a
=10
8a
4.g}
==
!!!AGN: Shange, Tiange. Nongtian laodong shi chang
!!!ONB: ESAC (Essen Associative Code) Database: CHINA
!!!AMT: simple duple
!!!AIN: vox
!!!EED: Helmut Schaffrath
!!!EEV: 1.0
*-
!!!ONB: Tied note syntax fixed by Craig Sapp, 2004/05/03/
